Obsidian-SemiLight/actions/16s/transform-shear-down.svg

<svg viewBox="0 0 16 16" xmlns="http://www.w3.org/2000/svg"><path d="m14 2-8 2v8l8-2zm-1 1.5v5.5l-6 1.5v-5.5zm-11 1.5v9h8v-2h-1v1h-6v-7h2v-1z" fill="#4d4d4d"/></svg>

<svg xmlns="http://www.w3.org/2000/svg" viewBox="0 0 16 16">
  <defs id="defs3051">
    <style type="text/css" id="current-color-scheme">
      .ColorScheme-Text {
        color:#4d4d4d;
      }
      </style>
  </defs>
 <path style="fill:currentColor;fill-opacity:1;stroke:none" 
       d="M 14 2 L 6 4 L 6 12 L 14 10 L 14 2 z M 13 3.5 L 13 9 L 7 10.5 L 7 5 L 13 3.5 z M 2 5 L 2 14 L 10 14 L 10 12 L 9 12 L 9 13 L 3 13 L 3 6 L 5 6 L 5 5 L 2 5 z "
     class="ColorScheme-Text"
     />
</svg>
